X: 9270
T: Danbury Hill
R: jig
M: 6/8
K: Aminor
|:Ace f2e|dBG e2d|cBA BAG|Ace dBG|
Ace f2e|dBG e2d|cBA BAG|1 A3- A2E:|2 A3- A2A||
|:aA^g AgA|^fAf e3|efe d2B|efe d2A|
aA^g AgA|^fAf e3|efe dcB|1 A3- A2A:|2 A3- A2E||

